public/images/icon-golf-hole--leaf.svg

<svg width="24" height="26" viewBox="0 0 24 26" fill="none" xmlns="http://www.w3.org/2000/svg">
<path d="M6 0L19.5 6L8.25 11.0156C8.25 11.1094 8.25 11.1562 8.25 11.25V15.2812C9.42188 15.0938 10.6875 15 12 15C18.6094 15 24 17.3438 24 20.25C24 23.1562 18.6094 25.5 12 25.5C5.39062 25.5 0 23.1562 0 20.25C0 18.3281 2.4375 16.5938 6 15.7031V0ZM10.5 21C12.1406 21 13.5 20.3438 13.5 19.5C13.5 18.6562 12.1406 18 10.5 18C8.85938 18 7.5 18.6562 7.5 19.5C7.5 20.3438 8.85938 21 10.5 21Z" fill="#91C15D"/>
</svg>

<svg width="24" height="26" viewBox="0 0 24 26" fill="none" xmlns="http://www.w3.org/2000/svg"><path d="m6 0 13.5 6-11.25 5.016v4.265A23.903 23.903 0 0 1 12 15c6.61 0 12 2.344 12 5.25s-5.39 5.25-12 5.25-12-2.344-12-5.25c0-1.922 2.438-3.656 6-4.547V0Zm4.5 21c1.64 0 3-.656 3-1.5s-1.36-1.5-3-1.5-3 .656-3 1.5 1.36 1.5 3 1.5Z" fill="#91C15D"/></svg>
